2023_japangoods/img/guide/guide-note-head-m.svg

<svg width="100" height="37" viewBox="0 0 100 37" fill="none" xmlns="http://www.w3.org/2000/svg">
<rect width="100" height="36.0656" rx="18.0328" fill="#1F1F1F"/>
<path d="M40.2853 25.1806C39.2394 25.1806 38.4159 25.0844 37.8148 24.8921C37.2137 24.6997 36.7869 24.3511 36.5344 23.8462C36.294 23.3413 36.1738 22.632 36.1738 21.7183V18.0036C36.1738 17.2342 36.282 16.6331 36.4984 16.2003C36.7148 15.7555 37.0694 15.4429 37.5623 15.2626C38.0672 15.0702 38.7344 14.974 39.5639 14.974H40.0869C40.5437 14.974 40.8623 14.9019 41.0426 14.7576C41.223 14.6134 41.3131 14.3309 41.3131 13.9101V12.5937C41.3131 12.1729 41.223 11.8904 41.0426 11.7462C40.8623 11.6019 40.5437 11.5298 40.0869 11.5298H36.6426C36.3782 11.5298 36.1497 11.4336 35.9574 11.2413C35.765 11.0489 35.6689 10.8205 35.6689 10.556C35.6689 10.2795 35.765 10.0511 35.9574 9.87076C36.1497 9.67841 36.3782 9.58224 36.6426 9.58224H40.123C40.9645 9.58224 41.6257 9.67841 42.1066 9.87076C42.5995 10.0511 42.9481 10.3576 43.1525 10.7904C43.3689 11.2232 43.4771 11.8243 43.4771 12.5937V13.9101C43.4771 14.6795 43.3689 15.2866 43.1525 15.7314C42.9481 16.1642 42.5995 16.4768 42.1066 16.6691C41.6257 16.8495 40.9645 16.9396 40.123 16.9396H39.5639C39.0831 16.9396 38.7525 17.0238 38.5721 17.1921C38.3918 17.3484 38.3017 17.6549 38.3017 18.1117V21.7183C38.3017 22.079 38.3558 22.3615 38.4639 22.5658C38.5842 22.7582 38.7885 22.8964 39.0771 22.9806C39.3656 23.0527 39.7803 23.0888 40.3213 23.0888C40.8262 23.0888 41.2109 23.0527 41.4754 22.9806C41.7519 22.9085 41.9503 22.7822 42.0705 22.6019C42.2027 22.4096 42.3109 22.1331 42.3951 21.7724C42.4552 21.4719 42.6235 21.2555 42.9 21.1232C43.1765 20.979 43.4711 20.9549 43.7836 21.0511C44.4088 21.2434 44.6672 21.6702 44.559 22.3314C44.3787 23.3653 43.9579 24.0986 43.2967 24.5314C42.6355 24.9642 41.6317 25.1806 40.2853 25.1806ZM31.5935 25.3429C30.8481 25.3429 30.259 25.2527 29.8262 25.0724C29.4055 24.9041 29.1049 24.6156 28.9246 24.2068C28.7443 23.8101 28.6541 23.2751 28.6541 22.6019C28.6541 21.9167 28.7443 21.3757 28.9246 20.979C29.1049 20.5822 29.4055 20.2997 29.8262 20.1314C30.259 19.9631 30.8481 19.879 31.5935 19.879C32.3388 19.879 32.9279 19.9631 33.3607 20.1314C33.7935 20.2997 34.1 20.5822 34.2803 20.979C34.4607 21.3757 34.5508 21.9167 34.5508 22.6019C34.5508 23.2751 34.4607 23.8101 34.2803 24.2068C34.1 24.6156 33.7935 24.9041 33.3607 25.0724C32.9279 25.2527 32.3388 25.3429 31.5935 25.3429ZM28.5459 13.9462C28.3175 13.9462 28.1191 13.868 27.9508 13.7117C27.7945 13.5434 27.7164 13.3451 27.7164 13.1167C27.7164 12.8762 27.7945 12.6779 27.9508 12.5216C28.1191 12.3533 28.3175 12.2691 28.5459 12.2691H34.5148C34.7432 12.2691 34.9355 12.3533 35.0918 12.5216C35.2601 12.6779 35.3443 12.8762 35.3443 13.1167C35.3443 13.3451 35.2601 13.5434 35.0918 13.7117C34.9355 13.868 34.7432 13.9462 34.5148 13.9462H28.5459ZM29.4476 19.0675C29.2191 19.0675 29.0208 18.9833 28.8525 18.815C28.6842 18.6347 28.6 18.4303 28.6 18.2019C28.6 17.9615 28.6842 17.7571 28.8525 17.5888C29.0208 17.4205 29.2191 17.3363 29.4476 17.3363H33.7033C33.9437 17.3363 34.1421 17.4205 34.2984 17.5888C34.4667 17.7571 34.5508 17.9615 34.5508 18.2019C34.5508 18.4303 34.4667 18.6347 34.2984 18.815C34.1421 18.9833 33.9437 19.0675 33.7033 19.0675H29.4476ZM29.4476 16.5068C29.2191 16.5068 29.0208 16.4227 28.8525 16.2544C28.6842 16.074 28.6 15.8697 28.6 15.6413C28.6 15.4008 28.6842 15.1964 28.8525 15.0281C29.0208 14.8598 29.2191 14.7757 29.4476 14.7757H33.7033C33.9437 14.7757 34.1421 14.8598 34.2984 15.0281C34.4667 15.1964 34.5508 15.4008 34.5508 15.6413C34.5508 15.8697 34.4667 16.074 34.2984 16.2544C34.1421 16.4227 33.9437 16.5068 33.7033 16.5068H29.4476ZM29.4476 11.4216C29.2191 11.4216 29.0208 11.3374 28.8525 11.1691C28.6842 10.9888 28.6 10.7844 28.6 10.556C28.6 10.3156 28.6842 10.1112 28.8525 9.94289C29.0208 9.77459 29.2191 9.69044 29.4476 9.69044H33.7033C33.9437 9.69044 34.1421 9.77459 34.2984 9.94289C34.4667 10.1112 34.5508 10.3156 34.5508 10.556C34.5508 10.7844 34.4667 10.9888 34.2984 11.1691C34.1421 11.3374 33.9437 11.4216 33.7033 11.4216H29.4476ZM31.5935 23.6478C31.9782 23.6478 32.2426 23.5817 32.3869 23.4495C32.5312 23.3052 32.6033 23.0227 32.6033 22.6019C32.6033 22.1932 32.5312 21.9227 32.3869 21.7904C32.2426 21.6462 31.9782 21.574 31.5935 21.574C31.2208 21.574 30.9623 21.6462 30.818 21.7904C30.6738 21.9227 30.6017 22.1932 30.6017 22.6019C30.6017 23.0227 30.6738 23.3052 30.818 23.4495C30.9623 23.5817 31.2208 23.6478 31.5935 23.6478ZM60.9869 25.9019C60.2175 25.9019 59.7967 25.5713 59.7246 24.9101C59.6885 24.5975 59.7727 24.3331 59.9771 24.1167C60.1814 23.9003 60.47 23.7801 60.8426 23.756C61.2995 23.7199 61.588 23.6538 61.7082 23.5576C61.8284 23.4495 61.8885 23.221 61.8885 22.8724V22.6199H56.5689C56.3525 22.6199 56.1661 22.5478 56.0099 22.4036C55.8656 22.2473 55.7935 22.0609 55.7935 21.8445C55.7935 21.6281 55.8656 21.4478 56.0099 21.3036C56.1661 21.1473 56.3525 21.0691 56.5689 21.0691H61.8885V20.3478H55.1262C54.9339 20.3478 54.7596 20.2757 54.6033 20.1314C54.459 19.9872 54.3869 19.8128 54.3869 19.6085C54.3869 19.4041 54.459 19.2298 54.6033 19.0855C54.7596 18.9413 54.9339 18.8691 55.1262 18.8691H61.8885V18.1658H56.623C56.3946 18.1658 56.2022 18.0997 56.0459 17.9675C55.8896 17.8232 55.8115 17.6429 55.8115 17.4265C55.8115 17.1981 55.8896 17.0178 56.0459 16.8855C56.2022 16.7413 56.3946 16.6691 56.623 16.6691H61.8885V16.038H59.6525C58.7388 16.038 58.1077 15.9057 57.759 15.6413C57.4104 15.3768 57.2361 14.9139 57.2361 14.2527C57.2361 13.5915 57.4104 13.1347 57.759 12.8822C58.1077 12.6178 58.7388 12.4855 59.6525 12.4855H61.8885V11.8724H55.6853C55.4689 11.8724 55.2825 11.7943 55.1262 11.638C54.982 11.4817 54.9099 11.2954 54.9099 11.079C54.9099 10.8626 54.982 10.6762 55.1262 10.5199C55.2825 10.3637 55.4689 10.2855 55.6853 10.2855H61.8885V9.7265C61.8885 9.38989 61.9907 9.12541 62.1951 8.93306C62.4115 8.74071 62.67 8.64453 62.9705 8.64453C63.2711 8.64453 63.5235 8.74071 63.7279 8.93306C63.9443 9.12541 64.0525 9.38989 64.0525 9.7265V10.2855H70.2197C70.4361 10.2855 70.6164 10.3637 70.7607 10.5199C70.917 10.6762 70.9951 10.8626 70.9951 11.079C70.9951 11.2954 70.917 11.4817 70.7607 11.638C70.6164 11.7943 70.4361 11.8724 70.2197 11.8724H64.0525V12.4855H66.2344C67.1601 12.4855 67.7973 12.6178 68.1459 12.8822C68.4946 13.1347 68.6689 13.5915 68.6689 14.2527C68.6689 14.9139 68.4946 15.3768 68.1459 15.6413C67.7973 15.9057 67.1601 16.038 66.2344 16.038H64.0525V16.6691H66.1984C67.0519 16.6691 67.7191 16.7352 68.2 16.8675C68.6929 16.9997 69.0415 17.2281 69.2459 17.5527C69.4623 17.8653 69.5885 18.3041 69.6246 18.8691H70.7426C70.947 18.8691 71.1213 18.9413 71.2656 19.0855C71.4099 19.2298 71.482 19.4041 71.482 19.6085C71.482 19.8128 71.4099 19.9872 71.2656 20.1314C71.1213 20.2757 70.947 20.3478 70.7426 20.3478H69.6246C69.5885 20.9128 69.4623 21.3637 69.2459 21.7003C69.0415 22.0369 68.6989 22.2773 68.218 22.4216C67.7372 22.5538 67.064 22.6199 66.1984 22.6199H64.0525V23.1249C64.0525 24.1107 63.812 24.8199 63.3312 25.2527C62.8503 25.6855 62.0689 25.9019 60.9869 25.9019ZM64.0525 21.0691H66.1984C66.6672 21.0691 66.9978 21.027 67.1902 20.9429C67.3825 20.8467 67.4967 20.6484 67.5328 20.3478H64.0525V21.0691ZM64.0525 18.8691H67.5328C67.4847 18.5566 67.3645 18.3642 67.1721 18.2921C66.9918 18.2079 66.6672 18.1658 66.1984 18.1658H64.0525V18.8691ZM59.6525 14.6134H61.8885V13.9101H59.6525C59.4842 13.9101 59.364 13.9342 59.2918 13.9822C59.2317 14.0303 59.2017 14.1265 59.2017 14.2708C59.2017 14.403 59.2317 14.4932 59.2918 14.5413C59.364 14.5893 59.4842 14.6134 59.6525 14.6134ZM64.0525 14.6134H66.2344C66.4027 14.6134 66.517 14.5893 66.5771 14.5413C66.6492 14.4932 66.6853 14.403 66.6853 14.2708C66.6853 14.1265 66.6492 14.0303 66.5771 13.9822C66.517 13.9342 66.4027 13.9101 66.2344 13.9101H64.0525V14.6134Z" fill="white"/>
</svg>

<svg width="100" height="37" fill="none" xmlns="http://www.w3.org/2000/svg"><rect width="100" height="36.066" rx="18.033" fill="#1F1F1F"/><path d="M40.285 25.18c-1.046 0-1.87-.096-2.47-.288-.601-.192-1.028-.54-1.28-1.046-.241-.505-.361-1.214-.361-2.128v-3.714c0-.77.108-1.37.324-1.804.217-.444.571-.757 1.064-.937.505-.193 1.172-.289 2.002-.289h.523c.457 0 .775-.072.956-.216.18-.145.27-.427.27-.848v-1.316c0-.421-.09-.704-.27-.848-.18-.144-.5-.216-.956-.216h-3.444a.936.936 0 0 1-.686-.289.936.936 0 0 1-.288-.685c0-.276.096-.505.288-.685a.936.936 0 0 1 .686-.289h3.48c.842 0 1.503.096 1.984.289.492.18.841.487 1.046.92.216.432.324 1.033.324 1.803v1.316c0 .77-.108 1.377-.324 1.821-.205.433-.553.746-1.046.938-.481.18-1.142.27-1.984.27h-.56c-.48 0-.81.085-.99.253-.181.156-.271.463-.271.92v3.606c0 .361.054.643.162.848.12.192.325.33.613.415.289.072.703.108 1.244.108.505 0 .89-.036 1.154-.108.277-.073.475-.199.596-.38.132-.191.24-.468.324-.829.06-.3.228-.516.505-.649.276-.144.571-.168.884-.072.625.192.883.62.775 1.28-.18 1.034-.601 1.768-1.262 2.2-.661.433-1.665.65-3.012.65Zm-8.691.163c-.746 0-1.335-.09-1.768-.27a1.595 1.595 0 0 1-.901-.866c-.18-.397-.27-.932-.27-1.605 0-.685.09-1.226.27-1.623.18-.397.48-.68.901-.848.433-.168 1.022-.252 1.767-.252.746 0 1.335.084 1.768.252.433.169.739.451.92.848.18.397.27.938.27 1.623 0 .673-.09 1.208-.27 1.605-.181.409-.487.697-.92.865-.433.18-1.022.27-1.767.27Zm-3.048-11.397a.846.846 0 0 1-.595-.234.846.846 0 0 1-.235-.595c0-.24.078-.44.235-.595a.814.814 0 0 1 .595-.253h5.969c.228 0 .42.084.577.253a.777.777 0 0 1 .252.595.814.814 0 0 1-.252.595.784.784 0 0 1-.577.234h-5.97Zm.902 5.121a.814.814 0 0 1-.596-.252.875.875 0 0 1 0-1.226.814.814 0 0 1 .596-.253h4.255c.24 0 .44.085.595.253a.875.875 0 0 1 0 1.226.777.777 0 0 1-.595.252h-4.255Zm0-2.56a.814.814 0 0 1-.596-.253.875.875 0 0 1 0-1.226.814.814 0 0 1 .596-.252h4.255c.24 0 .44.084.595.252a.875.875 0 0 1 0 1.226.777.777 0 0 1-.595.253h-4.255Zm0-5.085a.814.814 0 0 1-.596-.253.875.875 0 0 1 0-1.226.814.814 0 0 1 .596-.253h4.255c.24 0 .44.085.595.253a.875.875 0 0 1 0 1.226.777.777 0 0 1-.595.253h-4.255Zm2.145 12.226c.385 0 .65-.066.794-.198.144-.145.216-.427.216-.848 0-.409-.072-.68-.216-.812-.144-.144-.409-.216-.794-.216-.372 0-.63.072-.775.216-.144.133-.216.403-.216.812 0 .42.072.703.216.848.144.132.403.198.775.198Zm29.394 2.254c-.77 0-1.19-.33-1.262-.992a.943.943 0 0 1 .252-.793c.204-.217.493-.337.866-.361.456-.036.745-.102.865-.198.12-.108.18-.337.18-.686v-.252h-5.32a.796.796 0 0 1-.558-.216.796.796 0 0 1-.216-.56c0-.216.072-.396.216-.54a.763.763 0 0 1 .559-.235h5.32v-.721h-6.763a.753.753 0 0 1-.523-.217.712.712 0 0 1-.216-.523c0-.204.072-.378.216-.523a.753.753 0 0 1 .523-.216h6.763v-.703h-5.266a.863.863 0 0 1-.577-.198.706.706 0 0 1-.234-.541c0-.229.078-.41.234-.541a.82.82 0 0 1 .577-.217h5.266v-.631h-2.236c-.914 0-1.545-.132-1.894-.397-.349-.264-.523-.727-.523-1.388 0-.662.174-1.118.523-1.37.349-.265.98-.397 1.894-.397h2.236v-.614h-6.204a.763.763 0 0 1-.559-.234.796.796 0 0 1-.216-.559c0-.216.072-.403.216-.56a.764.764 0 0 1 .56-.233h6.203v-.56c0-.336.102-.6.306-.793.216-.192.475-.288.776-.288.3 0 .553.096.757.288.216.192.324.457.324.793v.56h6.168c.216 0 .396.078.54.234a.763.763 0 0 1 .235.559.763.763 0 0 1-.234.559.706.706 0 0 1-.541.234h-6.168v.614h2.182c.926 0 1.563.132 1.912.396.349.253.523.71.523 1.37 0 .662-.174 1.125-.523 1.39-.349.264-.986.396-1.912.396h-2.181v.631h2.145c.854 0 1.521.066 2.002.198.493.133.841.361 1.046.686.216.312.343.751.379 1.316h1.118c.204 0 .378.072.523.216a.712.712 0 0 1 .216.523.712.712 0 0 1-.216.523.712.712 0 0 1-.523.217h-1.118c-.037.565-.163 1.016-.38 1.352-.204.337-.546.577-1.027.722-.48.132-1.154.198-2.02.198h-2.145v.505c0 .986-.241 1.695-.722 2.128-.48.433-1.262.649-2.344.649Zm3.065-4.833h2.146c.47 0 .8-.042.992-.126.192-.096.307-.295.343-.595h-3.48v.721Zm0-2.2h3.48c-.047-.312-.167-.505-.36-.577-.18-.084-.505-.126-.974-.126h-2.145v.703Zm-4.4-4.256h2.236v-.703h-2.235c-.169 0-.289.024-.361.072-.06.048-.09.145-.09.289 0 .132.03.222.09.27.072.048.192.072.36.072Zm4.4 0h2.182c.169 0 .283-.024.343-.072.072-.048.108-.138.108-.27 0-.145-.036-.24-.108-.289-.06-.048-.174-.072-.343-.072h-2.181v.703Z" fill="#fff"/></svg>
